X: 1
T: Bobby Gardner's
M: 6/8
L: 1/8
R: jig
K: Dmaj
DFA A2D|FA=c B2A|GBB B2A|GAB dAG|
FA^G A2D|FAA ABc|d2B AFA|dAF E2D:|
FDD ADD|B3 ABd|FDD ADD|FED FED|
FDD ADD|B3 ABc|d2B AFA|dAF E2D:|
